;FLAVOR:Marlin
;TIME:28366
;Filament used: 21.4428m
;Layer height: 0.2
;MINX:28
;MINY:28
;MINZ:0.2
;MAXX:207
;MAXY:207
;MAXZ:12.8
;Generated with Cura_SteamEngine 4.12.1
M140 S50
M105
M190 S50
M104 S200
M105
M109 S200
M82 ;absolute extrusion mode
; Ender 3 Custom Start G-code
G92 E0 ; Reset Extruder
G28 ; Home all axes.
G29 ; Home all axes, for CR Touch
G1 Z2.0 F3000 ; Move Z Axis up little to prevent scratching of Heat Bed
G1 X0.1 Y20 Z0.3 F5000.0 ; Move to start position
G1 X0.1 Y200.0 Z0.3 F1500.0 E15 ; Draw the first line
G1 X0.4 Y200.0 Z0.3 F5000.0 ; Move to side a little
G1 X0.4 Y20 Z0.3 F1500.0 E30 ; Draw the second line
G92 E0 ; Reset Extruder
G1 Z2.0 F3000 ; Move Z Axis up little to prevent scratching of Heat Bed
G1 X5 Y20 Z0.3 F5000.0 ; Move over to prevent blob squish
G92 E0
G92 E0
G1 F2700 E-5
;LAYER_COUNT:64
;LAYER:0
M107
G0 F6000 X31.198 Y31.264 Z0.2
;TYPE:SKIRT
G1 F2700 E0
G1 F1200 X31.886 Y30.627 E0.03119
G1 X32.626 Y30.051 E0.06237
G1 X33.412 Y29.539 E0.09357
G1 X34.239 Y29.097 E0.12476
G1 X35.101 Y28.727 E0.15596
G1 X35.991 Y28.431 E0.18716
G1 X36.903 Y28.213 E0.21835
G1 X37.83 Y28.072 E0.24953
G1 X38.701 Y28.013 E0.27857
G1 X39.022 Y28.004 E0.28925
G1 X39.33 Y28 E0.29949
G1 X195.293 Y28 E5.48684
G1 X196.149 Y28.011 E5.51532
G1 X197.085 Y28.065 E5.5465
G1 X198.013 Y28.197 E5.57768
G1 X198.927 Y28.409 E5.60888
G1 X199.819 Y28.698 E5.64007
G1 X200.684 Y29.061 E5.67127
G1 X201.514 Y29.497 E5.70245
G1 X202.305 Y30.002 E5.73367
G1 X203.049 Y30.573 E5.76486
G1 X203.742 Y31.205 E5.79606
G1 X204.379 Y31.893 E5.82724
G1 X204.954 Y32.634 E5.85844
G1 X205.465 Y33.42 E5.88962
G1 X205.907 Y34.248 E5.92084
G1 X206.276 Y35.11 E5.95202
G1 X206.571 Y36 E5.98321
G1 X206.789 Y36.912 E6.01439
G1 X206.929 Y37.84 E6.04561
G1 X206.987 Y38.701 E6.07431
G1 X206.996 Y39.021 E6.08496
G1 X207 Y39.33 E6.09524
G1 X206.999 Y195.4 E11.28615
G1 X206.99 Y196.127 E11.31033
G1 X206.939 Y197.064 E11.34154
G1 X206.807 Y197.992 E11.37272
G1 X206.598 Y198.906 E11.4039
G1 X206.311 Y199.799 E11.4351
G1 X205.949 Y200.665 E11.46632
G1 X205.515 Y201.496 E11.4975
G1 X205.011 Y202.287 E11.52869
G1 X204.442 Y203.032 E11.55987
G1 X203.811 Y203.727 E11.59109
G1 X203.124 Y204.365 E11.62228
G1 X202.385 Y204.942 E11.65346
G1 X201.599 Y205.454 E11.68466
G1 X200.773 Y205.897 E11.71584
G1 X199.911 Y206.269 E11.74706
G1 X199.022 Y206.565 E11.77823
G1 X198.11 Y206.785 E11.80943
G1 X197.183 Y206.926 E11.84062
G1 X196.299 Y206.987 E11.87009
G1 X195.978 Y206.996 E11.88077
G1 X195.67 Y207 E11.89101
G1 X39.565 Y206.999 E17.08309
G1 X38.867 Y206.99 E17.1063
G1 X37.931 Y206.938 E17.13748
G1 X37.002 Y206.806 E17.16869
G1 X36.088 Y206.596 E17.19988
G1 X35.195 Y206.309 E17.23108
G1 X34.33 Y205.946 E17.26228
G1 X33.499 Y205.512 E17.29346
G1 X32.708 Y205.008 E17.32466
G1 X31.963 Y204.438 E17.35586
G1 X31.269 Y203.807 E17.38706
G1 X30.632 Y203.12 E17.41822
G1 X30.055 Y202.38 E17.44943
G1 X29.543 Y201.594 E17.48063
G1 X29.1 Y200.767 E17.51183
G1 X28.729 Y199.906 E17.54301
G1 X28.433 Y199.016 E17.57421
G1 X28.214 Y198.104 E17.6054
G1 X28.073 Y197.177 E17.63659
G1 X28.013 Y196.288 E17.66623
G1 X28.004 Y195.955 E17.67731
G1 X28 Y195.658 E17.68719
G1 X28.001 Y39.525 E22.88019
G1 X28.01 Y38.86 E22.90231
G1 X28.063 Y37.924 E22.93349
G1 X28.195 Y36.995 E22.9647
G1 X28.406 Y36.081 E22.9959
G1 X28.694 Y35.189 E23.02708
G1 X29.057 Y34.324 E23.05828
G1 X29.492 Y33.493 E23.08947
G1 X29.996 Y32.703 E23.12064
G1 X30.566 Y31.958 E23.15184
G1 X31.198 Y31.264 E23.18306
G0 F6000 X31.589 Y31.439
G1 F1200 X32.274 Y30.823 E23.2137
G1 X33.01 Y30.27 E23.24432
G1 X33.791 Y29.782 E23.27495
G1 X34.611 Y29.364 E23.30556
G1 X35.465 Y29.019 E23.3362
G1 X36.345 Y28.749 E23.36681
G1 X37.245 Y28.557 E23.39742
G1 X38.159 Y28.443 E23.42806
G1 X38.712 Y28.413 E23.44648
G1 X39.033 Y28.404 E23.45716
G1 X39.33 Y28.4 E23.46704
G1 X195.293 Y28.4 E28.65439
G1 X196.143 Y28.411 E28.68266
G1 X197.062 Y28.464 E28.71328
G1 X197.973 Y28.597 E28.7439
G1 X198.869 Y28.808 E28.77451
G1 X199.743 Y29.096 E28.80512
G1 X200.59 Y29.459 E28.83577
G1 X201.401 Y29.894 E28.86638
G1 X202.171 Y30.398 E28.89699
G1 X202.895 Y30.967 E28.92761
G1 X203.567 Y31.597 E28.95825
G1 X204.182 Y32.282 E28.98887
G1 X204.735 Y33.018 E29.01949
G1 X205.222 Y33.799 E29.0501
G1 X205.639 Y34.62 E29.08073
G1 X205.984 Y35.474 E29.11136
G1 X206.253 Y36.354 E29.14197
G1 X206.445 Y37.255 E29.17261
G1 X206.558 Y38.168 E29.20321
G1 X206.587 Y38.712 E29.22133
G1 X206.596 Y39.032 E29.23197
G1 X206.6 Y39.33 E29.24189
G1 X206.599 Y195.395 E34.43263
G1 X206.59 Y196.122 E34.45681
G1 X206.539 Y197.041 E34.48742
G1 X206.408 Y197.953 E34.51807
G1 X206.198 Y198.849 E34.54868
G1 X205.912 Y199.724 E34.5793
G1 X205.551 Y200.571 E34.60992
G1 X205.117 Y201.383 E34.64054
G1 X204.615 Y202.155 E34.67117
G1 X204.047 Y202.88 E34.7018
G1 X203.419 Y203.553 E34.73242
G1 X202.735 Y204.169 E34.76303
G1 X202 Y204.723 E34.79365
G1 X201.22 Y205.212 E34.82427
G1 X200.4 Y205.631 E34.85489
G1 X199.547 Y205.977 E34.88551
G1 X198.667 Y206.248 E34.91614
G1 X197.767 Y206.441 E34.94675
G1 X196.853 Y206.556 E34.97739
G1 X196.288 Y206.587 E34.99621
G1 X195.967 Y206.596 E35.00689
G1 X195.67 Y206.6 E35.01677
G1 X39.57 Y206.599 E40.20868
G1 X38.872 Y206.59 E40.23189
G1 X37.953 Y206.538 E40.26251
G1 X37.042 Y206.407 E40.29312
G1 X36.146 Y206.197 E40.32373
G1 X35.271 Y205.91 E40.35436
G1 X34.424 Y205.548 E40.38499
G1 X33.612 Y205.114 E40.41562
G1 X32.841 Y204.612 E40.44622
G1 X32.116 Y204.044 E40.47685
G1 X31.443 Y203.415 E40.50749
G1 X30.828 Y202.731 E40.53808
G1 X30.274 Y201.996 E40.56869
G1 X29.786 Y201.215 E40.59932
G1 X29.367 Y200.395 E40.62995
G1 X29.021 Y199.542 E40.66057
G1 X28.751 Y198.662 E40.69118
G1 X28.558 Y197.761 E40.72183
G1 X28.444 Y196.848 E40.75243
G1 X28.413 Y196.277 E40.77145
G1 X28.404 Y195.944 E40.78253
G1 X28.4 Y195.658 E40.79205
G1 X28.401 Y39.531 E45.98485
G1 X28.41 Y38.866 E46.00697
G1 X28.462 Y37.946 E46.03762
G1 X28.594 Y37.035 E46.06824
G1 X28.805 Y36.139 E46.09885
G1 X29.092 Y35.264 E46.12948
G1 X29.455 Y34.418 E46.1601
G1 X29.889 Y33.606 E46.19072
G1 X30.392 Y32.835 E46.22134
G1 X30.961 Y32.111 E46.25197
G1 X31.589 Y31.439 E46.28256
G0 F6000 X31.981 Y31.617
G1 F1200 X32.662 Y31.024 E46.31259
G1 X33.394 Y30.494 E46.34265
G1 X34.169 Y30.031 E46.37268
G1 X34.982 Y29.638 E46.40271
G1 X35.827 Y29.318 E46.43276
G1 X36.696 Y29.075 E46.46278
G1 X37.584 Y28.909 E46.49282
G1 X38.723 Y28.813 E46.53084
G1 X39.044 Y28.804 E46.54152
G1 X39.33 Y28.8 E46.55103
G1 X195.293 Y28.8 E51.73838
G1 X196.137 Y28.811 E51.76646
G1 X197.039 Y28.864 E51.79651
G1 X197.932 Y28.996 E51.82653
G1 X198.81 Y29.207 E51.85657
G1 X199.666 Y29.495 E51.88661
G1 X200.493 Y29.857 E51.91663
G1 X201.285 Y30.292 E51.94669
G1 X202.036 Y30.794 E51.97673
G1 X202.739 Y31.361 E52.00677
G1 X203.389 Y31.988 E52.03681
G1 X203.981 Y32.67 E52.06685
G1 X204.511 Y33.401 E52.09688
G1 X204.973 Y34.177 E52.12691
G1 X205.366 Y34.99 E52.15695
G1 X205.684 Y35.835 E52.18698
G1 X205.927 Y36.705 E52.21702
G1 X206.092 Y37.593 E52.24706
G1 X206.187 Y38.723 E52.28478
G1 X206.196 Y39.043 E52.29543
G1 X206.2 Y39.33 E52.30497
G1 X206.199 Y195.39 E57.49555
G1 X206.19 Y196.117 E57.51973
G1 X206.139 Y197.019 E57.54978
G1 X206.008 Y197.913 E57.57983
G1 X205.799 Y198.791 E57.60985
G1 X205.513 Y199.648 E57.6399
G1 X205.152 Y200.476 E57.66994
G1 X204.72 Y201.268 E57.69995
G1 X204.219 Y202.02 E57.73
G1 X203.653 Y202.724 E57.76005
G1 X203.028 Y203.375 E57.79006
G1 X202.347 Y203.969 E57.82012
G1 X201.616 Y204.5 E57.85017
G1 X200.842 Y204.964 E57.88018
G1 X200.029 Y205.358 E57.91023
G1 X199.185 Y205.678 E57.94025
G1 X198.315 Y205.923 E57.97032
G1 X197.428 Y206.089 E58.00033
G1 X196.277 Y206.187 E58.03875
G1 X195.956 Y206.196 E58.04943
G1 X195.67 Y206.2 E58.05894
G1 X39.575 Y206.199 E63.25069
G1 X38.877 Y206.19 E63.2739
G1 X37.976 Y206.139 E63.30392
G1 X37.082 Y206.007 E63.33398
G1 X36.204 Y205.798 E63.36399
G1 X35.347 Y205.511 E63.39405
G1 X34.52 Y205.15 E63.42407
G1 X33.727 Y204.717 E63.45412
G1 X32.976 Y204.216 E63.48414
G1 X32.272 Y203.65 E63.51419
G1 X31.621 Y203.024 E63.54423
G1 X31.028 Y202.343 E63.57426
G1 X30.498 Y201.612 E63.60429
G1 X30.034 Y200.837 E63.63434
G1 X29.64 Y200.024 E63.66438
G1 X29.32 Y199.18 E63.69441
G1 X29.076 Y198.31 E63.72446
G1 X28.91 Y197.422 E63.7545
G1 X28.813 Y196.267 E63.79306
G1 X28.804 Y195.934 E63.80414
G1 X28.8 Y195.658 E63.81332
G1 X28.801 Y39.536 E69.00595
G1 X28.81 Y38.871 E69.02807
G1 X28.862 Y37.969 E69.05813
G1 X28.994 Y37.076 E69.08815
G1 X29.204 Y36.198 E69.11818
G1 X29.491 Y35.341 E69.14824
G1 X29.853 Y34.514 E69.17826
G1 X30.286 Y33.722 E69.20828
G1 X30.788 Y32.971 E69.23833
G1 X31.355 Y32.267 E69.26839
G1 X31.981 Y31.617 E69.29841
G1 F2700 E64.29841
;MESH:Bottom-Body.stl
G0 F6000 X71.402 Y70.332
G0 X70.16 Y69.571
G0 X70.113 Y71.12
G0 X70.254 Y71.817
G0 X70.596 Y72.444
G0 X71.107 Y72.942
G0 X71.74 Y73.265
G0 X73.193 Y73.455
;TYPE:WALL-INNER
G1 F2700 E69.29841
G1 F1200 X73.55 Y73.325 E69.31104
G1 X73.886 Y73.142 E69.32377
G1 X74.188 Y72.912 E69.3364
G1 X74.455 Y72.639 E69.3491
G1 X74.677 Y72.329 E69.36178
G1 X74.852 Y71.989 E69.3745
G1 X74.973 Y71.628 E69.38716
G1 X75.038 Y71.254 E69.39979
G1 X75.049 Y70.872 E69.4125
G1 X75 Y70.494 E69.42517
G1 X74.897 Y70.127 E69.43785
G1 X74.74 Y69.778 E69.45058
G1 X74.532 Y69.46 E69.46322
G1 X74.281 Y69.173 E69.4759
G1 X73.986 Y68.927 E69.48868
G1 X73.662 Y68.73 E69.50129
G1 X73.312 Y68.583 E69.51391
G1 X72.943 Y68.488 E69.52659
G1 X72.562 Y68.45 E69.53932
G1 X72.181 Y68.469 E69.55201
G1 X71.807 Y68.545 E69.5647
G1 X71.45 Y68.675 E69.57734
G1 X71.114 Y68.858 E69.59007
G1 X70.813 Y69.087 E69.60264
G1 X70.545 Y69.361 E69.61539
G1 X70.323 Y69.671 E69.62807
G1 X70.148 Y70.011 E69.64079
G1 X70.027 Y70.372 E69.65346
G1 X69.962 Y70.746 E69.66608
G1 X69.951 Y71.128 E69.67879
G1 X70 Y71.506 E69.69147
G1 X70.103 Y71.873 E69.70415
G1 X70.26 Y72.222 E69.71688
G1 X70.468 Y72.541 E69.72954
G1 X70.719 Y72.827 E69.7422
G1 X71.014 Y73.073 E69.75497
G1 X71.337 Y73.27 E69.76756
G1 X71.688 Y73.418 E69.78023
G1 X72.058 Y73.512 E69.79292
G1 X72.438 Y73.55 E69.80563
G1 X72.819 Y73.531 E69.81831
G1 X73.193 Y73.455 E69.83101
G0 F6000 X73.084 Y73.069
;TYPE:WALL-OUTER
G1 F1200 X73.385 Y72.959 E69.84167
G1 X73.668 Y72.805 E69.85238
G1 X73.923 Y72.611 E69.86304
G1 X74.148 Y72.381 E69.87374
G1 X74.335 Y72.12 E69.88442
G1 X74.482 Y71.833 E69.89514
G1 X74.584 Y71.529 E69.90581
G1 X74.639 Y71.214 E69.91645
G1 X74.648 Y70.892 E69.92716
G1 X74.607 Y70.574 E69.93782
G1 X74.52 Y70.264 E69.94853
G1 X74.388 Y69.97 E69.95925
G1 X74.213 Y69.702 E69.9699
G1 X74.001 Y69.46 E69.9806
G1 X73.753 Y69.253 E69.99134
G1 X73.48 Y69.087 E70.00197
G1 X73.184 Y68.963 E70.01264
G1 X72.873 Y68.883 E70.02332
G1 X72.552 Y68.851 E70.03405
G1 X72.231 Y68.867 E70.04474
G1 X71.916 Y68.931 E70.05543
G1 X71.615 Y69.041 E70.06609
G1 X71.332 Y69.195 E70.07681
G1 X71.078 Y69.388 E70.08742
G1 X70.852 Y69.619 E70.09817
G1 X70.665 Y69.88 E70.10885
G1 X70.518 Y70.167 E70.11957
G1 X70.416 Y70.471 E70.13024
G1 X70.361 Y70.786 E70.14087
G1 X70.352 Y71.108 E70.15159
G1 X70.393 Y71.426 E70.16225
G1 X70.48 Y71.736 E70.17296
G1 X70.612 Y72.03 E70.18368
G1 X70.787 Y72.299 E70.19435
G1 X70.999 Y72.54 E70.20503
G1 X71.247 Y72.747 E70.21577
G1 X71.52 Y72.913 E70.2264
G1 X71.816 Y73.038 E70.23709
G1 X72.127 Y73.117 E70.24776
G1 X72.448 Y73.149 E70.25849
G1 X72.769 Y73.133 E70.26918
G1 X73.084 Y73.069 E70.27987
G0 F6000 X73.203 Y73.492
G1 F2700 E65.27987
G0 F6000 X74.601 Y72.762
G0 X73.531 Y71.767
G0 X161.43 Y71.711
G0 X160.315 Y72.656
G0 X161.688 Y73.418
;TYPE:WALL-INNER
G1 F2700 E70.27987
G1 F1200 X162.058 Y73.512 E70.29257
G1 X162.438 Y73.55 E70.30527
G1 X162.819 Y73.531 E70.31795
G1 X163.193 Y73.455 E70.33065
G1 X163.55 Y73.325 E70.34328
G1 X163.886 Y73.142 E70.35601
G1 X164.188 Y72.912 E70.36864
G1 X164.455 Y72.639 E70.38134
G1 X164.677 Y72.329 E70.39402
G1 X164.852 Y71.989 E70.40674
G1 X164.973 Y71.628 E70.4194
G1 X165.038 Y71.254 E70.43203
G1 X165.049 Y70.872 E70.44474
G1 X165 Y70.494 E70.45741
G1 X164.897 Y70.127 E70.47009
G1 X164.74 Y69.778 E70.48282
G1 X164.532 Y69.46 E70.49546
G1 X164.281 Y69.173 E70.50814
G1 X163.986 Y68.927 E70.52092
G1 X163.662 Y68.73 E70.53353
G1 X163.312 Y68.583 E70.54615
G1 X162.943 Y68.488 E70.55883
G1 X162.562 Y68.45 E70.57156
G1 X162.181 Y68.469 E70.58425
G1 X161.807 Y68.545 E70.59694
G1 X161.45 Y68.675 E70.60958
G1 X161.114 Y68.858 E70.62231
G1 X160.813 Y69.087 E70.63489
G1 X160.545 Y69.361 E70.64763
G1 X160.323 Y69.671 E70.66031
G1 X160.148 Y70.011 E70.67303
G1 X160.027 Y70.372 E70.6857
G1 X159.962 Y70.746 E70.69832
G1 X159.951 Y71.128 E70.71103
G1 X160 Y71.506 E70.72371
G1 X160.103 Y71.873 E70.73639
G1 X160.26 Y72.222 E70.74912
G1 X160.468 Y72.541 E70.76178
G1 X160.719 Y72.827 E70.77444
G1 X161.014 Y73.073 E70.78721
G1 X161.337 Y73.27 E70.7998
G1 X161.688 Y73.418 E70.81247
G0 F6000 X161.816 Y73.038
;TYPE:WALL-OUTER
G1 F1200 X162.127 Y73.117 E70.82314
G1 X162.448 Y73.149 E70.83387
G1 X162.769 Y73.133 E70.84456
G1 X163.084 Y73.069 E70.85525
G1 X163.385 Y72.959 E70.86591
G1 X163.668 Y72.805 E70.87663
G1 X163.923 Y72.611 E70.88728
G1 X164.148 Y72.381 E70.89798
G1 X164.335 Y72.12 E70.90866
G1 X164.482 Y71.833 E70.91939
G1 X164.584 Y71.529 E70.93005
G1 X164.639 Y71.214 E70.94069
G1 X164.648 Y70.892 E70.9514
G1 X164.607 Y70.574 E70.96207
G1 X164.52 Y70.264 E70.97278
G1 X164.388 Y69.97 E70.98349
G1 X164.213 Y69.702 E70.99414
G1 X164.001 Y69.46 E71.00484
G1 X163.753 Y69.253 E71.01559
G1 X163.48 Y69.087 E71.02621
G1 X163.184 Y68.963 E71.03689
G1 X162.873 Y68.883 E71.04757
G1 X162.552 Y68.851 E71.0583
G1 X162.231 Y68.867 E71.06899
G1 X161.916 Y68.931 E71.07968
G1 X161.615 Y69.041 E71.09034
G1 X161.332 Y69.195 E71.10105
G1 X161.078 Y69.388 E71.11166
G1 X160.852 Y69.619 E71.12241
G1 X160.665 Y69.88 E71.13309
G1 X160.518 Y70.167 E71.14381
G1 X160.416 Y70.471 E71.15448
G1 X160.361 Y70.786 E71.16511
G1 X160.352 Y71.108 E71.17583
G1 X160.393 Y71.426 E71.18649
G1 X160.48 Y71.736 E71.1972
G1 X160.612 Y72.03 E71.20792
G1 X160.787 Y72.299 E71.21859
G1 X160.999 Y72.54 E71.22927
G1 X161.247 Y72.747 E71.24001
G1 X161.52 Y72.913 E71.25064
G1 X161.816 Y73.038 E71.26133
G0 F6000 X161.676 Y73.455
G1 F2700 E66.26133
G0 F6000 X162.433 Y73.742
G0 X162.454 Y72.285
G0 X162.223 Y162.745
G0 X161.755 Y161.361
G0 X160.668 Y162.465
G0 X160.297 Y163.074
G0 X160.122 Y163.762
G0 X160.158 Y164.473
G0 X160.354 Y165.016
G0 X161.014 Y166.073
;TYPE:WALL-INNER
G1 F2700 E71.26133
G1 F1200 X161.337 Y166.27 E71.27391
G1 X161.688 Y166.418 E71.28658
G1 X162.058 Y166.512 E71.29928
G1 X162.438 Y166.55 E71.31198
G1 X162.819 Y166.531 E71.32467
G1 X163.193 Y166.455 E71.33736
G1 X163.55 Y166.325 E71.35
G1 X163.886 Y166.142 E71.36272
G1 X164.188 Y165.912 E71.37535
G1 X164.455 Y165.639 E71.38805
G1 X164.677 Y165.329 E71.40073
G1 X164.852 Y164.989 E71.41345
G1 X164.973 Y164.628 E71.42611
G1 X165.038 Y164.254 E71.43874
G1 X165.049 Y163.872 E71.45145
G1 X165 Y163.494 E71.46413
G1 X164.897 Y163.127 E71.47681
G1 X164.74 Y162.778 E71.48953
G1 X164.532 Y162.46 E71.50217
G1 X164.281 Y162.173 E71.51485
G1 X163.986 Y161.927 E71.52763
G1 X163.662 Y161.73 E71.54024
G1 X163.312 Y161.583 E71.55287
G1 X162.943 Y161.488 E71.56554
G1 X162.562 Y161.45 E71.57828
G1 X162.181 Y161.469 E71.59096
G1 X161.807 Y161.545 E71.60366
G1 X161.45 Y161.675 E71.61629
G1 X161.114 Y161.858 E71.62902
G1 X160.813 Y162.087 E71.6416
G1 X160.545 Y162.361 E71.65435
G1 X160.323 Y162.671 E71.66703
G1 X160.148 Y163.011 E71.67975
G1 X160.027 Y163.372 E71.69241
G1 X159.962 Y163.746 E71.70504
G1 X159.951 Y164.128 E71.71775
G1 X160 Y164.506 E71.73042
G1 X160.103 Y164.873 E71.7431
G1 X160.26 Y165.222 E71.75583
G1 X160.468 Y165.541 E71.7685
G1 X160.719 Y165.827 E71.78115
G1 X161.014 Y166.073 E71.79393
G0 F6000 X161.247 Y165.747
;TYPE:WALL-OUTER
G1 F1200 X161.52 Y165.913 E71.80456
G1 X161.816 Y166.038 E71.81524
G1 X162.127 Y166.117 E71.82591
G1 X162.448 Y166.149 E71.83664
G1 X162.769 Y166.133 E71.84733
G1 X163.084 Y166.069 E71.85802
G1 X163.385 Y165.959 E71.86868
G1 X163.668 Y165.805 E71.8794
G1 X163.923 Y165.611 E71.89006
G1 X164.148 Y165.381 E71.90076
G1 X164.335 Y165.12 E71.91144
