;FLAVOR:Marlin
;TIME:11440
;Filament used: 8.76428m
;Layer height: 0.2
;MINX:28
;MINY:69
;MINZ:0.2
;MAXX:207
;MAXY:166
;MAXZ:2.8
;Generated with Cura_SteamEngine 4.12.1
M140 S50
M105
M190 S50
M104 S200
M105
M109 S200
M82 ;absolute extrusion mode
; Ender 3 Custom Start G-code
G92 E0 ; Reset Extruder
G28 ; Home all axes.
G29 ; Home all axes, for CR Touch
G1 Z2.0 F3000 ; Move Z Axis up little to prevent scratching of Heat Bed
G1 X0.1 Y20 Z0.3 F5000.0 ; Move to start position
G1 X0.1 Y200.0 Z0.3 F1500.0 E15 ; Draw the first line
G1 X0.4 Y200.0 Z0.3 F5000.0 ; Move to side a little
G1 X0.4 Y20 Z0.3 F1500.0 E30 ; Draw the second line
G92 E0 ; Reset Extruder
G1 Z2.0 F3000 ; Move Z Axis up little to prevent scratching of Heat Bed
G1 X5 Y20 Z0.3 F5000.0 ; Move over to prevent blob squish
G92 E0
G92 E0
G1 F2700 E-5
;LAYER_COUNT:14
;LAYER:0
M107
G0 F6000 X34.239 Y70.097 Z0.2
;TYPE:SKIRT
G1 F2700 E0
G1 F1200 X35.101 Y69.727 E0.0312
G1 X35.991 Y69.431 E0.0624
G1 X36.903 Y69.213 E0.09358
G1 X37.83 Y69.072 E0.12477
G1 X38.701 Y69.013 E0.15381
G1 X39.022 Y69.004 E0.16449
G1 X39.33 Y69 E0.17473
G1 X195.293 Y69 E5.36208
G1 X196.149 Y69.011 E5.39056
G1 X197.085 Y69.065 E5.42174
G1 X198.013 Y69.197 E5.45291
G1 X198.927 Y69.409 E5.48412
G1 X199.819 Y69.698 E5.51531
G1 X200.684 Y70.061 E5.54651
G1 X201.514 Y70.497 E5.57769
G1 X202.305 Y71.002 E5.6089
G1 X203.049 Y71.573 E5.6401
G1 X203.742 Y72.205 E5.67129
G1 X204.379 Y72.893 E5.70248
G1 X204.954 Y73.634 E5.73367
G1 X205.465 Y74.42 E5.76485
G1 X205.907 Y75.248 E5.79607
G1 X206.276 Y76.11 E5.82726
G1 X206.571 Y77 E5.85844
G1 X206.789 Y77.912 E5.88963
G1 X206.929 Y78.84 E5.92085
G1 X206.987 Y79.701 E5.94955
G1 X206.996 Y80.021 E5.9602
G1 X207 Y80.33 E5.97047
G1 X206.999 Y154.4 E8.43405
G1 X206.99 Y155.127 E8.45823
G1 X206.939 Y156.064 E8.48945
G1 X206.807 Y156.992 E8.52062
G1 X206.598 Y157.906 E8.55181
G1 X206.311 Y158.799 E8.583
G1 X205.949 Y159.665 E8.61422
G1 X205.515 Y160.496 E8.6454
G1 X205.011 Y161.287 E8.6766
G1 X204.442 Y162.032 E8.70778
G1 X203.811 Y162.727 E8.739
G1 X203.124 Y163.365 E8.77018
G1 X202.385 Y163.942 E8.80137
G1 X201.599 Y164.454 E8.83257
G1 X200.773 Y164.897 E8.86374
G1 X199.911 Y165.269 E8.89497
G1 X199.022 Y165.565 E8.92613
G1 X198.11 Y165.785 E8.95734
G1 X197.183 Y165.926 E8.98852
G1 X196.299 Y165.987 E9.01799
G1 X195.978 Y165.996 E9.02867
G1 X195.67 Y166 E9.03892
G1 X39.565 Y165.999 E14.23099
G1 X38.867 Y165.99 E14.25421
G1 X37.931 Y165.938 E14.28539
G1 X37.002 Y165.806 E14.3166
G1 X36.088 Y165.596 E14.34779
G1 X35.195 Y165.309 E14.37899
G1 X34.33 Y164.946 E14.41019
G1 X33.499 Y164.512 E14.44137
G1 X32.708 Y164.008 E14.47257
G1 X31.963 Y163.438 E14.50377
G1 X31.269 Y162.807 E14.53496
G1 X30.632 Y162.12 E14.56612
G1 X30.055 Y161.38 E14.59733
G1 X29.543 Y160.594 E14.62853
G1 X29.1 Y159.767 E14.65974
G1 X28.729 Y158.906 E14.69092
G1 X28.433 Y158.016 E14.72212
G1 X28.214 Y157.104 E14.75331
G1 X28.073 Y156.177 E14.7845
G1 X28.013 Y155.288 E14.81413
G1 X28.004 Y154.955 E14.82521
G1 X28 Y154.658 E14.83509
G1 X28.001 Y80.525 E17.30077
G1 X28.01 Y79.86 E17.32289
G1 X28.063 Y78.924 E17.35407
G1 X28.195 Y77.995 E17.38528
G1 X28.406 Y77.081 E17.41648
G1 X28.694 Y76.189 E17.44765
G1 X29.057 Y75.324 E17.47885
G1 X29.492 Y74.493 E17.51005
G1 X29.996 Y73.703 E17.54122
G1 X30.566 Y72.958 E17.57242
G1 X31.198 Y72.264 E17.60364
G1 X31.886 Y71.627 E17.63482
G1 X32.626 Y71.051 E17.66601
G1 X33.412 Y70.539 E17.69721
G1 X34.239 Y70.097 E17.7284
G0 F6000 X34.611 Y70.364
G1 F1200 X35.465 Y70.019 E17.75903
G1 X36.345 Y69.749 E17.78965
G1 X37.245 Y69.557 E17.82026
G1 X38.159 Y69.443 E17.85089
G1 X38.712 Y69.413 E17.86931
G1 X39.033 Y69.404 E17.87999
G1 X39.33 Y69.4 E17.88987
G1 X195.293 Y69.4 E23.07722
G1 X196.143 Y69.411 E23.10549
G1 X197.062 Y69.464 E23.13611
G1 X197.973 Y69.597 E23.16673
G1 X198.869 Y69.808 E23.19735
G1 X199.743 Y70.096 E23.22796
G1 X200.59 Y70.459 E23.25861
G1 X201.401 Y70.894 E23.28921
G1 X202.171 Y71.398 E23.31982
G1 X202.895 Y71.967 E23.35045
G1 X203.567 Y72.597 E23.38109
G1 X204.182 Y73.282 E23.41171
G1 X204.735 Y74.018 E23.44232
G1 X205.222 Y74.799 E23.47294
G1 X205.639 Y75.62 E23.50356
G1 X205.984 Y76.474 E23.5342
G1 X206.253 Y77.354 E23.5648
G1 X206.445 Y78.255 E23.59544
G1 X206.558 Y79.168 E23.62604
G1 X206.587 Y79.712 E23.64416
G1 X206.596 Y80.032 E23.65481
G1 X206.6 Y80.33 E23.66472
G1 X206.599 Y154.395 E26.12813
G1 X206.59 Y155.122 E26.15232
G1 X206.539 Y156.041 E26.18293
G1 X206.408 Y156.953 E26.21357
G1 X206.198 Y157.849 E26.24418
G1 X205.912 Y158.724 E26.2748
G1 X205.551 Y159.571 E26.30542
G1 X205.117 Y160.383 E26.33605
G1 X204.615 Y161.155 E26.36667
G1 X204.047 Y161.88 E26.39731
G1 X203.419 Y162.553 E26.42792
G1 X202.735 Y163.169 E26.45854
G1 X202 Y163.723 E26.48915
G1 X201.22 Y164.212 E26.51977
G1 X200.4 Y164.631 E26.5504
G1 X199.547 Y164.977 E26.58101
G1 X198.667 Y165.248 E26.61164
G1 X197.767 Y165.441 E26.64225
G1 X196.853 Y165.556 E26.67289
G1 X196.288 Y165.587 E26.69171
G1 X195.967 Y165.596 E26.70239
G1 X195.67 Y165.6 E26.71227
G1 X39.57 Y165.599 E31.90418
G1 X38.872 Y165.59 E31.9274
G1 X37.953 Y165.538 E31.95801
G1 X37.042 Y165.407 E31.98863
G1 X36.146 Y165.197 E32.01923
G1 X35.271 Y164.91 E32.04986
G1 X34.424 Y164.548 E32.0805
G1 X33.612 Y164.114 E32.11112
G1 X32.841 Y163.612 E32.14172
G1 X32.116 Y163.044 E32.17235
G1 X31.443 Y162.415 E32.20299
G1 X30.828 Y161.731 E32.23359
G1 X30.274 Y160.996 E32.2642
G1 X29.786 Y160.215 E32.29483
G1 X29.367 Y159.395 E32.32546
G1 X29.021 Y158.542 E32.35607
G1 X28.751 Y157.662 E32.38669
G1 X28.558 Y156.761 E32.41734
G1 X28.444 Y155.848 E32.44794
G1 X28.413 Y155.277 E32.46696
G1 X28.404 Y154.944 E32.47804
G1 X28.4 Y154.658 E32.48755
G1 X28.401 Y80.531 E34.95302
G1 X28.41 Y79.866 E34.97514
G1 X28.462 Y78.946 E35.00579
G1 X28.594 Y78.035 E35.03641
G1 X28.805 Y77.139 E35.06702
G1 X29.092 Y76.264 E35.09765
G1 X29.455 Y75.418 E35.12827
G1 X29.889 Y74.606 E35.15889
G1 X30.392 Y73.835 E35.18951
G1 X30.961 Y73.111 E35.22014
G1 X31.589 Y72.439 E35.25073
G1 X32.274 Y71.823 E35.28137
G1 X33.01 Y71.27 E35.31199
G1 X33.791 Y70.782 E35.34262
G1 X34.611 Y70.364 E35.37323
G0 F6000 X34.982 Y70.638
G1 F1200 X35.827 Y70.318 E35.40329
G1 X36.696 Y70.075 E35.4333
G1 X37.584 Y69.909 E35.46335
G1 X38.723 Y69.813 E35.50136
G1 X39.044 Y69.804 E35.51204
G1 X39.33 Y69.8 E35.52156
G1 X195.293 Y69.8 E40.70891
G1 X196.137 Y69.811 E40.73698
G1 X197.039 Y69.864 E40.76703
G1 X197.932 Y69.996 E40.79706
G1 X198.81 Y70.207 E40.82709
G1 X199.666 Y70.495 E40.85713
G1 X200.493 Y70.857 E40.88716
G1 X201.285 Y71.292 E40.91721
G1 X202.036 Y71.794 E40.94725
G1 X202.739 Y72.361 E40.97729
G1 X203.389 Y72.988 E41.00733
G1 X203.981 Y73.67 E41.03737
G1 X204.511 Y74.401 E41.0674
G1 X204.973 Y75.177 E41.09744
G1 X205.366 Y75.99 E41.12747
G1 X205.684 Y76.835 E41.1575
G1 X205.927 Y77.705 E41.18755
G1 X206.092 Y78.593 E41.21759
G1 X206.187 Y79.723 E41.2553
G1 X206.196 Y80.043 E41.26595
G1 X206.2 Y80.33 E41.2755
G1 X206.199 Y154.39 E43.73874
G1 X206.19 Y155.117 E43.76292
G1 X206.139 Y156.019 E43.79297
G1 X206.008 Y156.913 E43.82302
G1 X205.799 Y157.791 E43.85304
G1 X205.513 Y158.648 E43.88309
G1 X205.152 Y159.476 E43.91314
G1 X204.72 Y160.268 E43.94314
G1 X204.219 Y161.02 E43.9732
G1 X203.653 Y161.724 E44.00324
G1 X203.028 Y162.375 E44.03326
G1 X202.347 Y162.969 E44.06331
G1 X201.616 Y163.5 E44.09336
G1 X200.842 Y163.964 E44.12338
G1 X200.029 Y164.358 E44.15342
G1 X199.185 Y164.678 E44.18345
G1 X198.315 Y164.923 E44.21351
G1 X197.428 Y165.089 E44.24352
G1 X196.277 Y165.187 E44.28194
G1 X195.956 Y165.196 E44.29262
G1 X195.67 Y165.2 E44.30214
G1 X39.575 Y165.199 E49.49388
G1 X38.877 Y165.19 E49.5171
G1 X37.976 Y165.139 E49.54711
G1 X37.082 Y165.007 E49.57717
G1 X36.204 Y164.798 E49.60719
G1 X35.347 Y164.511 E49.63725
G1 X34.52 Y164.15 E49.66726
G1 X33.727 Y163.717 E49.69731
G1 X32.976 Y163.216 E49.72734
G1 X32.272 Y162.65 E49.75738
G1 X31.621 Y162.024 E49.78742
G1 X31.028 Y161.343 E49.81745
G1 X30.498 Y160.612 E49.84748
G1 X30.034 Y159.837 E49.87753
G1 X29.64 Y159.024 E49.90758
G1 X29.32 Y158.18 E49.9376
G1 X29.076 Y157.31 E49.96765
G1 X28.91 Y156.422 E49.9977
G1 X28.813 Y155.267 E50.03625
G1 X28.804 Y154.934 E50.04733
G1 X28.8 Y154.658 E50.05651
G1 X28.801 Y80.536 E52.52182
G1 X28.81 Y79.871 E52.54394
G1 X28.862 Y78.969 E52.57399
G1 X28.994 Y78.076 E52.60401
G1 X29.204 Y77.198 E52.63404
G1 X29.491 Y76.341 E52.6641
G1 X29.853 Y75.514 E52.69412
G1 X30.286 Y74.722 E52.72414
G1 X30.788 Y73.971 E52.75419
G1 X31.355 Y73.267 E52.78425
G1 X31.981 Y72.617 E52.81427
G1 X32.662 Y72.024 E52.8443
G1 X33.394 Y71.494 E52.87436
G1 X34.169 Y71.031 E52.90439
G1 X34.982 Y70.638 E52.93442
G1 F2700 E47.93442
;MESH:Back-Body.stl
G0 F6000 X46.27 Y86.882
G0 X45.479 Y85.657
G0 X44.75 Y87.057
G0 X44.572 Y87.758
G0 X44.61 Y88.488
G0 X44.86 Y89.171
G0 X45.3 Y89.749
G0 X45.891 Y90.173
G0 X46.582 Y90.404
G0 X48.075 Y90.369
;TYPE:WALL-INNER
G1 F2700 E52.93442
G1 F1200 X48.415 Y90.183 E52.94731
G1 X48.724 Y89.948 E52.96022
G1 X48.994 Y89.67 E52.97311
G1 X49.223 Y89.353 E52.98612
G1 X49.399 Y89.006 E52.99906
G1 X49.522 Y88.637 E53.012
G1 X49.588 Y88.256 E53.02486
G1 X49.599 Y87.866 E53.03783
G1 X49.548 Y87.479 E53.05082
G1 X49.443 Y87.107 E53.06367
G1 X49.281 Y86.752 E53.07665
G1 X49.07 Y86.425 E53.0896
G1 X48.812 Y86.135 E53.10251
G1 X48.514 Y85.885 E53.11544
G1 X48.183 Y85.684 E53.12832
G1 X47.824 Y85.533 E53.14128
G1 X47.447 Y85.438 E53.15421
G1 X47.062 Y85.4 E53.16708
G1 X46.674 Y85.419 E53.18
G1 X46.292 Y85.497 E53.19296
G1 X45.925 Y85.631 E53.20596
G1 X45.584 Y85.818 E53.21889
G1 X45.276 Y86.053 E53.23178
G1 X45.006 Y86.331 E53.24467
G1 X44.778 Y86.647 E53.25763
G1 X44.601 Y86.994 E53.27058
G1 X44.478 Y87.362 E53.28349
G1 X44.412 Y87.741 E53.29629
G1 X44.401 Y88.134 E53.30936
G1 X44.452 Y88.521 E53.32234
G1 X44.557 Y88.893 E53.3352
G1 X44.719 Y89.248 E53.34818
G1 X44.929 Y89.575 E53.36111
G1 X45.188 Y89.865 E53.37404
G1 X45.486 Y90.115 E53.38697
G1 X45.817 Y90.316 E53.39985
G1 X46.176 Y90.467 E53.41281
G1 X46.553 Y90.562 E53.42574
G1 X46.938 Y90.6 E53.43861
G1 X47.327 Y90.581 E53.45156
G1 X47.708 Y90.503 E53.4645
G1 X48.075 Y90.369 E53.47749
G0 F6000 X47.909 Y90.004
;TYPE:WALL-OUTER
G1 F1200 X48.197 Y89.846 E53.48842
G1 X48.458 Y89.648 E53.49931
G1 X48.687 Y89.412 E53.51025
G1 X48.88 Y89.144 E53.52123
G1 X49.029 Y88.851 E53.53217
G1 X49.133 Y88.539 E53.54311
G1 X49.189 Y88.216 E53.55401
G1 X49.198 Y87.887 E53.56496
G1 X49.155 Y87.56 E53.57592
G1 X49.066 Y87.245 E53.58681
G1 X48.929 Y86.944 E53.59781
G1 X48.751 Y86.668 E53.60873
G1 X48.533 Y86.423 E53.61964
G1 X48.28 Y86.211 E53.63062
G1 X48 Y86.041 E53.64152
G1 X47.697 Y85.913 E53.65246
G1 X47.378 Y85.833 E53.66339
G1 X47.052 Y85.801 E53.67429
G1 X46.724 Y85.817 E53.68521
G1 X46.401 Y85.883 E53.69618
G1 X46.091 Y85.996 E53.70715
G1 X45.803 Y86.154 E53.71808
G1 X45.542 Y86.353 E53.72899
G1 X45.313 Y86.589 E53.73993
G1 X45.12 Y86.856 E53.75089
G1 X44.971 Y87.149 E53.76182
G1 X44.867 Y87.46 E53.77273
G1 X44.811 Y87.781 E53.78357
G1 X44.802 Y88.113 E53.79461
G1 X44.845 Y88.44 E53.80558
G1 X44.934 Y88.755 E53.81647
G1 X45.071 Y89.056 E53.82747
G1 X45.248 Y89.332 E53.83837
G1 X45.467 Y89.577 E53.8493
G1 X45.72 Y89.789 E53.86028
G1 X46 Y89.959 E53.87118
G1 X46.303 Y90.087 E53.88212
G1 X46.622 Y90.167 E53.89306
G1 X46.948 Y90.199 E53.90395
G1 X47.277 Y90.183 E53.91491
G1 X47.599 Y90.117 E53.92584
G1 X47.909 Y90.004 E53.93681
G0 F6000 X48.09 Y90.404
G1 F2700 E48.93681
G0 F6000 X47.76 Y90.687
G0 X47.302 Y89.301
G0 X47.366 Y145.716
G0 X47.885 Y144.351
G0 X48.942 Y145.523
G0 X49.291 Y146.163
G0 X49.437 Y146.875
G0 X49.365 Y147.597
G0 X48.724 Y148.948
;TYPE:WALL-INNER
G1 F2700 E53.93681
G1 F1200 X48.994 Y148.67 E53.9497
G1 X49.223 Y148.353 E53.96271
G1 X49.399 Y148.006 E53.97565
G1 X49.522 Y147.637 E53.98859
G1 X49.588 Y147.256 E54.00145
G1 X49.599 Y146.866 E54.01442
G1 X49.548 Y146.479 E54.02741
G1 X49.443 Y146.107 E54.04026
G1 X49.281 Y145.752 E54.05324
G1 X49.07 Y145.425 E54.06619
G1 X48.812 Y145.135 E54.0791
G1 X48.514 Y144.885 E54.09203
G1 X48.183 Y144.684 E54.10491
G1 X47.824 Y144.533 E54.11787
G1 X47.447 Y144.438 E54.1308
G1 X47.062 Y144.4 E54.14367
G1 X46.674 Y144.419 E54.15659
G1 X46.292 Y144.497 E54.16955
G1 X45.925 Y144.631 E54.18255
G1 X45.584 Y144.818 E54.19548
G1 X45.276 Y145.053 E54.20837
G1 X45.006 Y145.331 E54.22126
G1 X44.778 Y145.647 E54.23422
G1 X44.601 Y145.994 E54.24717
G1 X44.478 Y146.362 E54.26008
G1 X44.412 Y146.741 E54.27287
G1 X44.401 Y147.134 E54.28595
G1 X44.452 Y147.521 E54.29893
G1 X44.557 Y147.893 E54.31179
G1 X44.719 Y148.248 E54.32477
G1 X44.929 Y148.575 E54.33769
G1 X45.188 Y148.865 E54.35063
G1 X45.486 Y149.115 E54.36356
G1 X45.817 Y149.316 E54.37644
G1 X46.176 Y149.467 E54.3894
G1 X46.553 Y149.562 E54.40233
G1 X46.938 Y149.6 E54.4152
G1 X47.327 Y149.581 E54.42815
G1 X47.708 Y149.503 E54.44108
G1 X48.075 Y149.369 E54.45408
G1 X48.415 Y149.183 E54.46697
G1 X48.724 Y148.948 E54.47988
G0 F6000 X48.458 Y148.648
;TYPE:WALL-OUTER
G1 F1200 X48.687 Y148.412 E54.49082
G1 X48.88 Y148.144 E54.5018
G1 X49.029 Y147.851 E54.51274
G1 X49.133 Y147.539 E54.52367
G1 X49.189 Y147.216 E54.53458
G1 X49.198 Y146.887 E54.54552
G1 X49.155 Y146.56 E54.55649
G1 X49.066 Y146.245 E54.56738
G1 X48.929 Y145.944 E54.57838
G1 X48.751 Y145.668 E54.5893
G1 X48.533 Y145.423 E54.60021
G1 X48.28 Y145.211 E54.61119
G1 X48 Y145.041 E54.62209
G1 X47.697 Y144.913 E54.63303
G1 X47.378 Y144.833 E54.64396
G1 X47.052 Y144.801 E54.65486
G1 X46.724 Y144.817 E54.66578
G1 X46.401 Y144.883 E54.67675
G1 X46.091 Y144.996 E54.68772
G1 X45.803 Y145.154 E54.69865
G1 X45.542 Y145.353 E54.70956
G1 X45.313 Y145.589 E54.7205
G1 X45.12 Y145.856 E54.73146
G1 X44.971 Y146.149 E54.74239
G1 X44.867 Y146.46 E54.7533
G1 X44.811 Y146.781 E54.76414
G1 X44.802 Y147.113 E54.77518
G1 X44.845 Y147.44 E54.78615
G1 X44.934 Y147.755 E54.79704
G1 X45.071 Y148.056 E54.80804
G1 X45.248 Y148.332 E54.81894
G1 X45.467 Y148.577 E54.82987
G1 X45.72 Y148.789 E54.84085
G1 X46 Y148.959 E54.85175
G1 X46.303 Y149.087 E54.86269
G1 X46.622 Y149.167 E54.87362
G1 X46.948 Y149.199 E54.88452
G1 X47.277 Y149.183 E54.89548
G1 X47.599 Y149.117 E54.90641
G1 X47.909 Y149.004 E54.91738
G1 X48.197 Y148.846 E54.92831
G1 X48.458 Y148.648 E54.9392
G0 F6000 X48.749 Y148.977
G1 F2700 E49.9392
G0 F6000 X49.365 Y147.597
G0 X49.449 Y145.66
G0 X48.139 Y146.302
G0 X60.089 Y122.212
G0 X60.713 Y123.552
G0 X61.52 Y123.055
;TYPE:WALL-INNER
G1 F2700 E54.9392
G1 F1200 X61.792 Y122.923 E54.94926
G1 X62.05 Y122.783 E54.95902
G1 X62.318 Y122.619 E54.96947
G1 X62.57 Y122.446 E54.97964
G1 X62.804 Y122.268 E54.98942
G1 X63.044 Y122.067 E54.99983
G1 X63.267 Y121.859 E55.00997
G1 X63.479 Y121.641 E55.02009
G1 X63.679 Y121.412 E55.0302
G1 X63.863 Y121.184 E55.03994
G1 X64.046 Y120.927 E55.05044
G1 X64.211 Y120.671 E55.06057
G1 X64.362 Y120.406 E55.07071
G1 X64.5 Y120.137 E55.08077
G1 X64.624 Y119.859 E55.09089
G1 X64.735 Y119.577 E55.10097
G1 X64.831 Y119.287 E55.11113
G1 X64.914 Y118.995 E55.12123
G1 X64.981 Y118.698 E55.13136
G1 X65.034 Y118.397 E55.14152
G1 X65.07 Y118.096 E55.1516
G1 X65.093 Y117.794 E55.16168
G1 X65.1 Y117.49 E55.17179
G1 X65.093 Y117.186 E55.1819
G1 X65.069 Y116.881 E55.19208
G1 X65.031 Y116.579 E55.2022
G1 X64.977 Y116.28 E55.21231
G1 X64.91 Y115.984 E55.2224
G1 X64.826 Y115.691 E55.23254
G1 X64.729 Y115.403 E55.24265
G1 X64.616 Y115.121 E55.25275
G1 X64.491 Y114.844 E55.26286
G1 X64.352 Y114.573 E55.27299
G1 X64.199 Y114.309 E55.28314
G1 X64.033 Y114.055 E55.29323
G1 X63.856 Y113.808 E55.30334
G1 X63.666 Y113.571 E55.31344
G1 X63.464 Y113.343 E55.32357
G1 X63.251 Y113.125 E55.33371
G1 X63.027 Y112.919 E55.34383
G1 X62.796 Y112.725 E55.35387
G1 X62.553 Y112.541 E55.364
G1 X62.3 Y112.37 E55.37416
G1 X62.04 Y112.211 E55.3843
G1 X61.772 Y112.067 E55.39442
G1 X61.5 Y111.936 E55.40446
G1 X61.229 Y111.822 E55.41423
G1 X60.933 Y111.713 E55.42473
G1 X60.641 Y111.625 E55.43487
G1 X60.346 Y111.551 E55.44499
G1 X60.048 Y111.492 E55.45509
G1 X59.749 Y111.446 E55.46515
G1 X59.445 Y111.416 E55.47531
G1 X59.141 Y111.402 E55.48543
G1 X58.837 Y111.402 E55.49554
G1 X58.533 Y111.418 E55.50567
