;FLAVOR:Marlin
;TIME:9864
;Filament used: 6.94048m
;Layer height: 0.2
;MINX:28
;MINY:69
;MINZ:0.2
;MAXX:207
;MAXY:166
;MAXZ:2.8
;Generated with Cura_SteamEngine 4.12.1
M140 S50
M105
M190 S50
M104 S200
M105
M109 S200
M82 ;absolute extrusion mode
; Ender 3 Custom Start G-code
G92 E0 ; Reset Extruder
G28 ; Home all axes.
G29 ; Home all axes, for CR Touch
G1 Z2.0 F3000 ; Move Z Axis up little to prevent scratching of Heat Bed
G1 X0.1 Y20 Z0.3 F5000.0 ; Move to start position
G1 X0.1 Y200.0 Z0.3 F1500.0 E15 ; Draw the first line
G1 X0.4 Y200.0 Z0.3 F5000.0 ; Move to side a little
G1 X0.4 Y20 Z0.3 F1500.0 E30 ; Draw the second line
G92 E0 ; Reset Extruder
G1 Z2.0 F3000 ; Move Z Axis up little to prevent scratching of Heat Bed
G1 X5 Y20 Z0.3 F5000.0 ; Move over to prevent blob squish
G92 E0
G92 E0
G1 F2700 E-5
;LAYER_COUNT:14
;LAYER:0
M107
G0 F6000 X34.239 Y70.097 Z0.2
;TYPE:SKIRT
G1 F2700 E0
G1 F1200 X35.101 Y69.727 E0.0312
G1 X35.991 Y69.431 E0.0624
G1 X36.903 Y69.213 E0.09358
G1 X37.83 Y69.072 E0.12477
G1 X38.701 Y69.013 E0.15381
G1 X39.022 Y69.004 E0.16449
G1 X39.33 Y69 E0.17473
G1 X195.293 Y69 E5.36208
G1 X196.149 Y69.011 E5.39056
G1 X197.085 Y69.065 E5.42174
G1 X198.013 Y69.197 E5.45291
G1 X198.927 Y69.409 E5.48412
G1 X199.819 Y69.698 E5.51531
G1 X200.684 Y70.061 E5.54651
G1 X201.514 Y70.497 E5.57769
G1 X202.305 Y71.002 E5.6089
G1 X203.049 Y71.573 E5.6401
G1 X203.742 Y72.205 E5.67129
G1 X204.379 Y72.893 E5.70248
G1 X204.954 Y73.634 E5.73367
G1 X205.465 Y74.42 E5.76485
G1 X205.907 Y75.248 E5.79607
G1 X206.276 Y76.11 E5.82726
G1 X206.571 Y77 E5.85844
G1 X206.789 Y77.912 E5.88963
G1 X206.929 Y78.84 E5.92085
G1 X206.987 Y79.701 E5.94955
G1 X206.996 Y80.021 E5.9602
G1 X207 Y80.33 E5.97047
G1 X206.999 Y154.4 E8.43405
G1 X206.99 Y155.127 E8.45823
G1 X206.939 Y156.064 E8.48945
G1 X206.807 Y156.992 E8.52062
G1 X206.598 Y157.906 E8.55181
G1 X206.311 Y158.799 E8.583
G1 X205.949 Y159.665 E8.61422
G1 X205.515 Y160.496 E8.6454
G1 X205.011 Y161.287 E8.6766
G1 X204.442 Y162.032 E8.70778
G1 X203.811 Y162.727 E8.739
G1 X203.124 Y163.365 E8.77018
G1 X202.385 Y163.942 E8.80137
G1 X201.599 Y164.454 E8.83257
G1 X200.773 Y164.897 E8.86374
G1 X199.911 Y165.269 E8.89497
G1 X199.022 Y165.565 E8.92613
G1 X198.11 Y165.785 E8.95734
G1 X197.183 Y165.926 E8.98852
G1 X196.299 Y165.987 E9.01799
G1 X195.978 Y165.996 E9.02867
G1 X195.67 Y166 E9.03892
G1 X39.565 Y165.999 E14.23099
G1 X38.867 Y165.99 E14.25421
G1 X37.931 Y165.938 E14.28539
G1 X37.002 Y165.806 E14.3166
G1 X36.088 Y165.596 E14.34779
G1 X35.195 Y165.309 E14.37899
G1 X34.33 Y164.946 E14.41019
G1 X33.499 Y164.512 E14.44137
G1 X32.708 Y164.008 E14.47257
G1 X31.963 Y163.438 E14.50377
G1 X31.269 Y162.807 E14.53496
G1 X30.632 Y162.12 E14.56612
G1 X30.055 Y161.38 E14.59733
G1 X29.543 Y160.594 E14.62853
G1 X29.1 Y159.767 E14.65974
G1 X28.729 Y158.906 E14.69092
G1 X28.433 Y158.016 E14.72212
G1 X28.214 Y157.104 E14.75331
G1 X28.073 Y156.177 E14.7845
G1 X28.013 Y155.288 E14.81413
G1 X28.004 Y154.955 E14.82521
G1 X28 Y154.658 E14.83509
G1 X28.001 Y80.525 E17.30077
G1 X28.01 Y79.86 E17.32289
G1 X28.063 Y78.924 E17.35407
G1 X28.195 Y77.995 E17.38528
G1 X28.406 Y77.081 E17.41648
G1 X28.694 Y76.189 E17.44765
G1 X29.057 Y75.324 E17.47885
G1 X29.492 Y74.493 E17.51005
G1 X29.996 Y73.703 E17.54122
G1 X30.566 Y72.958 E17.57242
G1 X31.198 Y72.264 E17.60364
G1 X31.886 Y71.627 E17.63482
G1 X32.626 Y71.051 E17.66601
G1 X33.412 Y70.539 E17.69721
G1 X34.239 Y70.097 E17.7284
G0 F6000 X34.611 Y70.364
G1 F1200 X35.465 Y70.019 E17.75903
G1 X36.345 Y69.749 E17.78965
G1 X37.245 Y69.557 E17.82026
G1 X38.159 Y69.443 E17.85089
G1 X38.712 Y69.413 E17.86931
G1 X39.033 Y69.404 E17.87999
G1 X39.33 Y69.4 E17.88987
G1 X195.293 Y69.4 E23.07722
G1 X196.143 Y69.411 E23.10549
G1 X197.062 Y69.464 E23.13611
G1 X197.973 Y69.597 E23.16673
G1 X198.869 Y69.808 E23.19735
G1 X199.743 Y70.096 E23.22796
G1 X200.59 Y70.459 E23.25861
G1 X201.401 Y70.894 E23.28921
G1 X202.171 Y71.398 E23.31982
G1 X202.895 Y71.967 E23.35045
G1 X203.567 Y72.597 E23.38109
G1 X204.182 Y73.282 E23.41171
G1 X204.735 Y74.018 E23.44232
G1 X205.222 Y74.799 E23.47294
G1 X205.639 Y75.62 E23.50356
G1 X205.984 Y76.474 E23.5342
G1 X206.253 Y77.354 E23.5648
G1 X206.445 Y78.255 E23.59544
G1 X206.558 Y79.168 E23.62604
G1 X206.587 Y79.712 E23.64416
G1 X206.596 Y80.032 E23.65481
G1 X206.6 Y80.33 E23.66472
G1 X206.599 Y154.395 E26.12813
G1 X206.59 Y155.122 E26.15232
G1 X206.539 Y156.041 E26.18293
G1 X206.408 Y156.953 E26.21357
G1 X206.198 Y157.849 E26.24418
G1 X205.912 Y158.724 E26.2748
G1 X205.551 Y159.571 E26.30542
G1 X205.117 Y160.383 E26.33605
G1 X204.615 Y161.155 E26.36667
G1 X204.047 Y161.88 E26.39731
G1 X203.419 Y162.553 E26.42792
G1 X202.735 Y163.169 E26.45854
G1 X202 Y163.723 E26.48915
G1 X201.22 Y164.212 E26.51977
G1 X200.4 Y164.631 E26.5504
G1 X199.547 Y164.977 E26.58101
G1 X198.667 Y165.248 E26.61164
G1 X197.767 Y165.441 E26.64225
G1 X196.853 Y165.556 E26.67289
G1 X196.288 Y165.587 E26.69171
G1 X195.967 Y165.596 E26.70239
G1 X195.67 Y165.6 E26.71227
G1 X39.57 Y165.599 E31.90418
G1 X38.872 Y165.59 E31.9274
G1 X37.953 Y165.538 E31.95801
G1 X37.042 Y165.407 E31.98863
G1 X36.146 Y165.197 E32.01923
G1 X35.271 Y164.91 E32.04986
G1 X34.424 Y164.548 E32.0805
G1 X33.612 Y164.114 E32.11112
G1 X32.841 Y163.612 E32.14172
G1 X32.116 Y163.044 E32.17235
G1 X31.443 Y162.415 E32.20299
G1 X30.828 Y161.731 E32.23359
G1 X30.274 Y160.996 E32.2642
G1 X29.786 Y160.215 E32.29483
G1 X29.367 Y159.395 E32.32546
G1 X29.021 Y158.542 E32.35607
G1 X28.751 Y157.662 E32.38669
G1 X28.558 Y156.761 E32.41734
G1 X28.444 Y155.848 E32.44794
G1 X28.413 Y155.277 E32.46696
G1 X28.404 Y154.944 E32.47804
G1 X28.4 Y154.658 E32.48755
G1 X28.401 Y80.531 E34.95302
G1 X28.41 Y79.866 E34.97514
G1 X28.462 Y78.946 E35.00579
G1 X28.594 Y78.035 E35.03641
G1 X28.805 Y77.139 E35.06702
G1 X29.092 Y76.264 E35.09765
G1 X29.455 Y75.418 E35.12827
G1 X29.889 Y74.606 E35.15889
G1 X30.392 Y73.835 E35.18951
G1 X30.961 Y73.111 E35.22014
G1 X31.589 Y72.439 E35.25073
G1 X32.274 Y71.823 E35.28137
G1 X33.01 Y71.27 E35.31199
G1 X33.791 Y70.782 E35.34262
G1 X34.611 Y70.364 E35.37323
G0 F6000 X34.982 Y70.638
G1 F1200 X35.827 Y70.318 E35.40329
G1 X36.696 Y70.075 E35.4333
G1 X37.584 Y69.909 E35.46335
G1 X38.723 Y69.813 E35.50136
G1 X39.044 Y69.804 E35.51204
G1 X39.33 Y69.8 E35.52156
G1 X195.293 Y69.8 E40.70891
G1 X196.137 Y69.811 E40.73698
G1 X197.039 Y69.864 E40.76703
G1 X197.932 Y69.996 E40.79706
G1 X198.81 Y70.207 E40.82709
G1 X199.666 Y70.495 E40.85713
G1 X200.493 Y70.857 E40.88716
G1 X201.285 Y71.292 E40.91721
G1 X202.036 Y71.794 E40.94725
G1 X202.739 Y72.361 E40.97729
G1 X203.389 Y72.988 E41.00733
G1 X203.981 Y73.67 E41.03737
G1 X204.511 Y74.401 E41.0674
G1 X204.973 Y75.177 E41.09744
G1 X205.366 Y75.99 E41.12747
G1 X205.684 Y76.835 E41.1575
G1 X205.927 Y77.705 E41.18755
G1 X206.092 Y78.593 E41.21759
G1 X206.187 Y79.723 E41.2553
G1 X206.196 Y80.043 E41.26595
G1 X206.2 Y80.33 E41.2755
G1 X206.199 Y154.39 E43.73874
G1 X206.19 Y155.117 E43.76292
G1 X206.139 Y156.019 E43.79297
G1 X206.008 Y156.913 E43.82302
G1 X205.799 Y157.791 E43.85304
G1 X205.513 Y158.648 E43.88309
G1 X205.152 Y159.476 E43.91314
G1 X204.72 Y160.268 E43.94314
G1 X204.219 Y161.02 E43.9732
G1 X203.653 Y161.724 E44.00324
G1 X203.028 Y162.375 E44.03326
G1 X202.347 Y162.969 E44.06331
G1 X201.616 Y163.5 E44.09336
G1 X200.842 Y163.964 E44.12338
G1 X200.029 Y164.358 E44.15342
G1 X199.185 Y164.678 E44.18345
G1 X198.315 Y164.923 E44.21351
G1 X197.428 Y165.089 E44.24352
G1 X196.277 Y165.187 E44.28194
G1 X195.956 Y165.196 E44.29262
G1 X195.67 Y165.2 E44.30214
G1 X39.575 Y165.199 E49.49388
G1 X38.877 Y165.19 E49.5171
G1 X37.976 Y165.139 E49.54711
G1 X37.082 Y165.007 E49.57717
G1 X36.204 Y164.798 E49.60719
G1 X35.347 Y164.511 E49.63725
G1 X34.52 Y164.15 E49.66726
G1 X33.727 Y163.717 E49.69731
G1 X32.976 Y163.216 E49.72734
G1 X32.272 Y162.65 E49.75738
G1 X31.621 Y162.024 E49.78742
G1 X31.028 Y161.343 E49.81745
G1 X30.498 Y160.612 E49.84748
G1 X30.034 Y159.837 E49.87753
G1 X29.64 Y159.024 E49.90758
G1 X29.32 Y158.18 E49.9376
G1 X29.076 Y157.31 E49.96765
G1 X28.91 Y156.422 E49.9977
G1 X28.813 Y155.267 E50.03625
G1 X28.804 Y154.934 E50.04733
G1 X28.8 Y154.658 E50.05651
G1 X28.801 Y80.536 E52.52182
G1 X28.81 Y79.871 E52.54394
G1 X28.862 Y78.969 E52.57399
G1 X28.994 Y78.076 E52.60401
G1 X29.204 Y77.198 E52.63404
G1 X29.491 Y76.341 E52.6641
G1 X29.853 Y75.514 E52.69412
G1 X30.286 Y74.722 E52.72414
G1 X30.788 Y73.971 E52.75419
G1 X31.355 Y73.267 E52.78425
G1 X31.981 Y72.617 E52.81427
G1 X32.662 Y72.024 E52.8443
G1 X33.394 Y71.494 E52.87436
G1 X34.169 Y71.031 E52.90439
G1 X34.982 Y70.638 E52.93442
G1 F2700 E47.93442
;MESH:Front-Body.stl
G0 F6000 X47.046 Y145.415
G0 X47.071 Y143.958
G0 X48.567 Y144.814
G0 X49.142 Y145.372
G0 X49.526 Y146.075
G0 X49.686 Y146.862
G0 X49.607 Y147.657
G0 X49.357 Y148.257
G0 X48.551 Y149.393
;TYPE:WALL-INNER
G1 F2700 E52.93442
G1 F1200 X48.89 Y149.134 E52.94861
G1 X49.186 Y148.83 E52.96272
G1 X49.436 Y148.483 E52.97695
G1 X49.628 Y148.102 E52.99114
G1 X49.764 Y147.698 E53.00532
G1 X49.837 Y147.28 E53.01943
G1 X49.848 Y146.853 E53.03364
G1 X49.793 Y146.429 E53.04786
G1 X49.678 Y146.019 E53.06202
G1 X49.502 Y145.634 E53.0761
G1 X49.271 Y145.275 E53.0903
G1 X48.987 Y144.955 E53.10453
G1 X48.661 Y144.683 E53.11865
G1 X48.296 Y144.46 E53.13288
G1 X47.904 Y144.295 E53.14702
G1 X47.49 Y144.192 E53.16121
G1 X47.066 Y144.15 E53.17538
G1 X46.64 Y144.171 E53.18957
G1 X46.223 Y144.256 E53.20372
G1 X45.823 Y144.404 E53.21791
G1 X45.449 Y144.607 E53.23206
G1 X45.109 Y144.866 E53.24628
G1 X44.814 Y145.171 E53.26039
G1 X44.564 Y145.517 E53.27459
G1 X44.372 Y145.897 E53.28875
G1 X44.236 Y146.301 E53.30293
G1 X44.163 Y146.716 E53.31694
G1 X44.152 Y147.147 E53.33128
G1 X44.207 Y147.571 E53.3455
G1 X44.322 Y147.98 E53.35963
G1 X44.498 Y148.366 E53.37374
G1 X44.728 Y148.725 E53.38792
G1 X45.013 Y149.045 E53.40218
G1 X45.339 Y149.317 E53.4163
G1 X45.704 Y149.54 E53.43052
G1 X46.096 Y149.705 E53.44467
G1 X46.51 Y149.808 E53.45886
G1 X46.934 Y149.85 E53.47303
G1 X47.36 Y149.829 E53.48722
G1 X47.778 Y149.743 E53.50141
G1 X48.176 Y149.596 E53.51552
G1 X48.551 Y149.393 E53.5297
G0 F6000 X48.333 Y149.056
;TYPE:WALL-OUTER
G1 F1200 X48.624 Y148.834 E53.54188
G1 X48.879 Y148.572 E53.55404
G1 X49.093 Y148.275 E53.56621
G1 X49.258 Y147.948 E53.5784
G1 X49.375 Y147.599 E53.59064
G1 X49.438 Y147.24 E53.60276
G1 X49.447 Y146.874 E53.61494
G1 X49.4 Y146.509 E53.62718
G1 X49.301 Y146.157 E53.63934
G1 X49.15 Y145.826 E53.65144
G1 X48.951 Y145.517 E53.66367
G1 X48.708 Y145.243 E53.67585
G1 X48.427 Y145.009 E53.68801
G1 X48.113 Y144.817 E53.70025
G1 X47.777 Y144.676 E53.71237
G1 X47.421 Y144.587 E53.72457
G1 X47.056 Y144.551 E53.73677
G1 X46.69 Y144.569 E53.74896
G1 X46.333 Y144.642 E53.76108
G1 X45.989 Y144.769 E53.77328
G1 X45.667 Y144.944 E53.78547
G1 X45.375 Y145.166 E53.79767
G1 X45.121 Y145.428 E53.8098
G1 X44.907 Y145.725 E53.82198
G1 X44.742 Y146.052 E53.83416
G1 X44.625 Y146.4 E53.84637
G1 X44.562 Y146.756 E53.8584
G1 X44.553 Y147.126 E53.87071
G1 X44.6 Y147.491 E53.88295
G1 X44.699 Y147.842 E53.89508
G1 X44.85 Y148.174 E53.90721
G1 X45.048 Y148.483 E53.91941
G1 X45.292 Y148.757 E53.93162
G1 X45.573 Y148.991 E53.94378
G1 X45.887 Y149.183 E53.95602
G1 X46.223 Y149.324 E53.96814
G1 X46.579 Y149.413 E53.98035
G1 X46.944 Y149.449 E53.99254
G1 X47.309 Y149.431 E54.0047
G1 X47.668 Y149.357 E54.01689
G1 X48.011 Y149.231 E54.02904
G1 X48.333 Y149.056 E54.04123
G0 F6000 X48.572 Y149.425
G1 F2700 E49.04123
G0 F6000 X49.159 Y148.595
G0 X50.039 Y146.843
G0 X48.579 Y146.841
G0 X55.706 Y140.804
G0 X55.654 Y142.271
G0 X57.517 Y141.613
;TYPE:WALL-INNER
G1 F2700 E54.04123
G1 F1200 X57.816 Y141.363 E54.0542
G1 X58.074 Y141.071 E54.06716
G1 X58.285 Y140.743 E54.08013
G1 X58.444 Y140.389 E54.09303
G1 X58.549 Y140.016 E54.10592
G1 X58.599 Y139.63 E54.11887
G1 X58.588 Y139.241 E54.13181
G1 X58.521 Y138.858 E54.14474
G1 X58.398 Y138.491 E54.15762
G1 X58.22 Y138.144 E54.17059
G1 X57.992 Y137.827 E54.18358
G1 X57.718 Y137.547 E54.19661
G1 X57.407 Y137.313 E54.20955
G1 X57.07 Y137.129 E54.22232
G1 X56.704 Y136.996 E54.23527
G1 X56.327 Y136.92 E54.24807
G1 X56.06 Y136.9 E54.25697
G1 X55.678 Y136.919 E54.26969
G1 X55.295 Y136.996 E54.28268
G1 X54.929 Y137.129 E54.29564
G1 X54.588 Y137.315 E54.30856
G1 X54.279 Y137.549 E54.32145
G1 X54.008 Y137.827 E54.33436
G1 X53.78 Y138.144 E54.34735
G1 X53.602 Y138.491 E54.36032
G1 X53.479 Y138.858 E54.37319
G1 X53.412 Y139.241 E54.38612
G1 X53.401 Y139.638 E54.39933
G1 X53.476 Y140.132 E54.41595
G1 X53.602 Y140.51 E54.42921
G1 X53.78 Y140.856 E54.44215
G1 X54.008 Y141.173 E54.45513
G1 X54.279 Y141.451 E54.46805
G1 X54.588 Y141.685 E54.48094
G1 X54.929 Y141.871 E54.49386
G1 X55.295 Y142.004 E54.50681
G1 X55.678 Y142.081 E54.5198
G1 X56.065 Y142.1 E54.53269
G1 X56.45 Y142.062 E54.54556
G1 X56.831 Y141.965 E54.55863
G1 X57.186 Y141.815 E54.57145
G1 X57.517 Y141.613 E54.58435
G0 F6000 X57.283 Y141.287
;TYPE:WALL-OUTER
G1 F1200 X57.536 Y141.075 E54.59533
G1 X57.754 Y140.829 E54.60626
G1 X57.932 Y140.552 E54.61721
G1 X58.067 Y140.252 E54.62815
G1 X58.156 Y139.936 E54.63907
G1 X58.198 Y139.61 E54.65001
G1 X58.189 Y139.281 E54.66095
G1 X58.132 Y138.957 E54.67189
G1 X58.028 Y138.646 E54.6828
G1 X57.878 Y138.353 E54.69375
G1 X57.685 Y138.085 E54.70473
G1 X57.453 Y137.848 E54.71576
G1 X57.19 Y137.65 E54.72671
G1 X56.905 Y137.495 E54.7375
G1 X56.595 Y137.382 E54.74848
G1 X56.273 Y137.317 E54.7594
G1 X56.055 Y137.301 E54.76667
G1 X55.727 Y137.317 E54.7776
G1 X55.404 Y137.382 E54.78855
G1 X55.094 Y137.495 E54.79953
G1 X54.806 Y137.652 E54.81044
G1 X54.544 Y137.85 E54.82136
G1 X54.315 Y138.085 E54.83228
G1 X54.122 Y138.353 E54.84326
G1 X53.972 Y138.646 E54.85421
G1 X53.868 Y138.957 E54.86511
G1 X53.811 Y139.281 E54.87606
G1 X53.802 Y139.613 E54.8871
G1 X53.866 Y140.038 E54.9014
G1 X53.972 Y140.354 E54.91248
G1 X54.122 Y140.647 E54.92343
G1 X54.315 Y140.915 E54.93442
G1 X54.544 Y141.15 E54.94533
G1 X54.806 Y141.348 E54.95625
G1 X55.094 Y141.505 E54.96716
G1 X55.404 Y141.618 E54.97814
G1 X55.727 Y141.683 E54.98909
G1 X56.055 Y141.699 E55.00002
G1 X56.381 Y141.667 E55.01091
G1 X56.703 Y141.585 E55.02196
G1 X57.003 Y141.458 E55.0328
G1 X57.283 Y141.287 E55.04371
G0 F6000 X57.539 Y141.644
G1 F2700 E50.04371
G0 F6000 X58.292 Y140.334
G0 X58.437 Y139.622
G0 X58.364 Y138.899
G0 X58.083 Y138.228
G0 X57.611 Y137.667
G0 X57.119 Y137.352
G0 X55.654 Y136.729
G0 X55.834 Y138.175
G0 X47.44 Y89.524
G0 X47.831 Y90.926
G0 X48.551 Y90.393
;TYPE:WALL-INNER
G1 F2700 E55.04371
G1 F1200 X48.89 Y90.134 E55.0579
G1 X49.186 Y89.83 E55.07201
G1 X49.436 Y89.483 E55.08624
G1 X49.628 Y89.102 E55.10043
G1 X49.764 Y88.698 E55.11461
G1 X49.837 Y88.28 E55.12872
G1 X49.848 Y87.853 E55.14293
G1 X49.793 Y87.429 E55.15715
G1 X49.678 Y87.019 E55.17131
G1 X49.502 Y86.634 E55.18539
G1 X49.271 Y86.275 E55.19959
G1 X48.987 Y85.955 E55.21382
G1 X48.661 Y85.683 E55.22794
G1 X48.296 Y85.46 E55.24217
G1 X47.904 Y85.295 E55.25631
G1 X47.49 Y85.192 E55.2705
G1 X47.066 Y85.15 E55.28467
G1 X46.64 Y85.171 E55.29886
G1 X46.223 Y85.256 E55.31301
G1 X45.823 Y85.404 E55.3272
G1 X45.449 Y85.607 E55.34135
G1 X45.109 Y85.866 E55.35557
G1 X44.814 Y86.171 E55.36968
G1 X44.564 Y86.517 E55.38388
G1 X44.372 Y86.897 E55.39804
G1 X44.236 Y87.301 E55.41222
G1 X44.163 Y87.716 E55.42623
G1 X44.152 Y88.147 E55.44057
G1 X44.207 Y88.571 E55.45479
G1 X44.322 Y88.98 E55.46892
G1 X44.498 Y89.366 E55.48303
G1 X44.728 Y89.725 E55.49721
G1 X45.013 Y90.045 E55.51147
G1 X45.339 Y90.317 E55.52559
G1 X45.704 Y90.54 E55.53981
G1 X46.096 Y90.705 E55.55396
G1 X46.51 Y90.808 E55.56815
G1 X46.934 Y90.85 E55.58232
G1 X47.36 Y90.829 E55.59651
G1 X47.778 Y90.743 E55.6107
G1 X48.176 Y90.596 E55.62481
G1 X48.551 Y90.393 E55.63899
G0 F6000 X48.333 Y90.056
;TYPE:WALL-OUTER
G1 F1200 X48.624 Y89.834 E55.65117
G1 X48.879 Y89.572 E55.66333
G1 X49.093 Y89.275 E55.6755
G1 X49.258 Y88.948 E55.68769
G1 X49.375 Y88.599 E55.69993
G1 X49.438 Y88.24 E55.71205
G1 X49.447 Y87.874 E55.72423
G1 X49.4 Y87.509 E55.73647
G1 X49.301 Y87.157 E55.74863
G1 X49.15 Y86.826 E55.76073
